X: 16
T:Constant Billy
R:Double Step
M:6/8
L:1/8
K:G
 D |G2B BAB | c2A FGA | BAG E2E | DEF G2 D|G2B BAB | c2A FGA | BAG E2 E
| DEF G2 :|
G | Bcd e2c | ABc d3 | Bcd e2c | ABc def | g2d BAB | c2A FGA | BAG E2 E
| DEF G2 :|
